X:17
T:Fir Tree Place
M:4/4
L:1/8
C:Taz Tarry 22/1/2005
Q:1/4=180
K:D
|:e2|fede f2 e2|DFAA B2 A2|DFAA B2 A2|f2 d2 B2 A2|
fede f2 e2|DFAA B2 A2|fede f2 e2|1 d6:|2 d6 d2||
|:DFAA B2 A2|G,B,DD E2 D2|G,B,DD E2 D2|f2 d2 B2 A2|
G,B,DD E2 D2|DFAA B2 A2|Acee f2 e2|1 d6 d2:|2 d6||

